X:150
T: Songren libie shui dongxi
N: C0250
O: China, Guangdong, Meixian
S: II, 408]
N: besonders typisch fuer keren. Inhalt: Eine Frau konnte ihren Mann
N: nicht von Geschaeftsreisen abhalten. Sie folgte ihm am Fluss,
N: sang dieses Lied, und er kam zurueck.
N: Der Saenger Lai Yuan Shen ist Student an der Guangzhouer Musik-
N: hochschule und war frueher selbst Landarbeiter. Aufgenommen am
N: 5.5.87
N: Einige Fermaten, Glissandi, zahlreiche Verzierungen. In -6___0___ ist
N: immer ein Glissando von -6 auf -3 notiert.
R: Shange, Songkou zhengban shange. Nann liqing]
M: 2/4
L: 1/32
K: F
A4A12 | G2A2G8A4 | G2A2G2F2D8 | D2F2G8A2A2
G2F2dFA2-A8 | G2A2G2F2D8 | G12G2F2 | D4F12 | D8z8
D4D12 | F4G8A2A2 | A4A4G8 | D4F12
G4D12 | D4D4G4A2A2 | G12G2F2 | D4D12 | D8z8
A4A12 | G2A2G8A2A2 | G2A2G2F2D8 | D2F2G8A2A2
A4A8G2F2 | D4D4D8 | G12G2F2 | D4F12 | D8z8
D4D12 | F4G8A2A2 | D4D4D8 | D4F12
G4D12 | F4D4G4A2A2 | G12G2F2 | D4D12- | D8z8
D2F2D12 | F4G8A2A2 | F4G2F2D8 | D2F2G8A2A2
F4A12 | G2A2G2F2D8 | G12G2F2 | D4F12 | D8z8
D4D12 | D4D4G4A2A2 | A4A4G8 | D4F12
G4D12 | F4D4G4A2A2 | G12G2F2 | D4D12- | D8z8
D2F2D12 | D2F2G8A2A2 | G4G2F2D8 | D2F2G8A2A2
G2F2D12 | D4D4D8 | G12G2F2 | D4F12 | D8z8
D4D12 | F4G8A2A2 | G12D4 | D4F12
G4D12 | F4D4G4A2A2 | G12G2F2 | D4D12- | D8z8
D2F2D12 | D2F2G8A2A2 | G4G2F2D8 | D2F2G8A2A2
G4D12 | F4D4D8 | G12F2G2 | D4F12 | D8z8
D4D12 | F4D4G4A2A2 | G12D4 | D4F12
G2F2D12 | F4D4G4A2A2 | G12G2F2 | D4D12- | D8z8

